source/img/icon/contacts-icon.svg

<svg width="23" height="23" viewBox="0 0 23 23" fill="none" xmlns="http://www.w3.org/2000/svg">
<path d="M3.36298 3.36149C-1.11901 7.83752 -1.11901 15.1029 3.35106 19.5849C7.12976 23.3636 12.8753 23.9536 17.2738 21.3669L17.2977 21.3491C19.0261 22.6543 20.8857 22.8808 22.173 22.6782C22.6022 22.6126 22.6916 22.0285 22.3042 21.8378C21.1241 21.2537 20.379 20.1034 19.944 19.1677L20.0632 19.0723C24.0564 14.5665 23.8895 7.67064 19.5804 3.36149C15.1103 -1.1205 7.84497 -1.1205 3.36298 3.36149Z" fill="#27ACE2"/>
</svg>

<svg width="23" height="23" fill="none" xmlns="http://www.w3.org/2000/svg"><path d="M3.363 3.361c-4.482 4.477-4.482 11.742-.012 16.224 3.779 3.779 9.524 4.369 13.923 1.782l.024-.018c1.728 1.305 3.588 1.532 4.875 1.33.43-.066.519-.65.131-.841-1.18-.584-1.925-1.735-2.36-2.67l.12-.096c3.992-4.505 3.826-11.401-.484-15.71-4.47-4.482-11.735-4.482-16.217 0z" fill="#27ACE2"/></svg>
